build/img/whatsapp.svg

<svg width="28" height="28" viewBox="0 0 28 28" fill="none" xmlns="http://www.w3.org/2000/svg">
<path d="M23.8624 4.0661C21.2295 1.44559 17.727 0.00149536 13.9994 0C10.28 0 6.77195 1.44281 4.12176 4.06268C1.46686 6.68704 0.00342126 10.1747 0 13.8703V13.8746V13.8772C0.000427657 16.114 0.58867 18.3705 1.70528 20.4303L0.0382753 28L7.70253 26.2583C9.64367 27.2357 11.8095 27.7509 13.994 27.7518H13.9996C17.7183 27.7518 21.2263 26.3087 23.877 23.6887C26.5342 21.0622 27.9983 17.579 28 13.881C28.0011 10.209 26.5319 6.72336 23.8624 4.0661ZM13.9994 25.5664H13.9944C12.033 25.5656 10.0895 25.0736 8.37438 24.1432L8.01194 23.9467L2.91555 25.1048L4.02254 20.0786L3.80914 19.711C2.74813 17.883 2.18747 15.8651 2.18747 13.8748C2.19153 7.43259 7.48977 2.18536 13.9989 2.18536C17.1435 2.18665 20.0982 3.40451 22.3186 5.61423C24.5725 7.85812 25.8134 10.7937 25.8123 13.8804C25.8098 20.3241 20.5104 25.5664 13.9994 25.5664Z" fill="#9D9EBF"/>
<path d="M10.3864 7.99988H9.82064C9.62369 7.99988 9.30392 8.07964 9.03344 8.39806C8.76276 8.71669 8 9.48683 8 11.0531C8 12.6194 9.05808 14.1328 9.20554 14.3454C9.35321 14.5579 11.248 17.8747 14.2489 19.1507C16.743 20.2111 17.2506 20.0002 17.7918 19.9471C18.3332 19.8942 19.5387 19.1772 19.7848 18.4339C20.0308 17.6906 20.0308 17.0534 19.9571 16.9203C19.8831 16.7876 19.6862 16.7081 19.3911 16.549C19.0957 16.3897 17.6487 15.6065 17.378 15.5001C17.1073 15.3941 16.9106 15.341 16.7136 15.6598C16.5167 15.9781 15.9369 16.7143 15.7646 16.9267C15.5925 17.1393 15.4202 17.166 15.1248 17.0067C14.8295 16.8469 13.8883 16.5048 12.7605 15.4206C11.8826 14.5766 11.2734 13.5004 11.1011 13.1818C10.929 12.8634 11.0828 12.6911 11.2308 12.5322C11.3635 12.3897 11.5427 12.1948 11.6904 12.009C11.8378 11.823 11.8798 11.6904 11.9784 11.478C12.0768 11.2655 12.0275 11.0796 11.9537 10.9205C11.8798 10.7611 11.3132 9.18696 11.0506 8.55738H11.0508C10.8296 8.02718 10.5968 8.00926 10.3864 7.99988Z" fill="#9D9EBF"/>
</svg>

<svg width="28" height="28" fill="none" xmlns="http://www.w3.org/2000/svg"><path d="M23.862 4.066A13.897 13.897 0 0 0 14 0c-3.72 0-7.228 1.443-9.878 4.063C1.467 6.687.003 10.175 0 13.87v.007c0 2.237.589 4.493 1.705 6.553L.038 28l7.665-1.742a14.039 14.039 0 0 0 6.291 1.494H14a13.97 13.97 0 0 0 9.877-4.063c2.657-2.627 4.121-6.11 4.123-9.808.001-3.672-1.468-7.158-4.138-9.815zM14 25.566h-.005a11.83 11.83 0 0 1-5.62-1.423l-.362-.196-5.096 1.158 1.107-5.026-.214-.368c-1.06-1.828-1.622-3.846-1.622-5.836C2.192 7.433 7.49 2.185 14 2.185c3.144.002 6.1 1.22 8.32 3.43 2.254 2.243 3.494 5.179 3.493 8.265C25.81 20.324 20.51 25.566 14 25.566z" fill="#9D9EBF"/><path d="M10.386 8h-.565c-.197 0-.517.08-.788.398C8.763 8.717 8 9.487 8 11.053c0 1.566 1.058 3.08 1.206 3.292.147.213 2.042 3.53 5.043 4.806 2.494 1.06 3.002.85 3.543.796.541-.053 1.747-.77 1.993-1.513.246-.743.246-1.38.172-1.514-.074-.132-.27-.212-.566-.371-.295-.16-1.742-.942-2.013-1.049-.27-.106-.467-.159-.664.16-.197.318-.777 1.054-.95 1.267-.171.212-.344.239-.64.08-.295-.16-1.236-.502-2.364-1.586-.877-.844-1.487-1.92-1.659-2.24-.172-.318-.018-.49.13-.649a9.07 9.07 0 0 0 .46-.523c.147-.186.189-.319.287-.531.099-.213.05-.398-.024-.557-.074-.16-.64-1.734-.903-2.364-.221-.53-.454-.548-.665-.557z" fill="#9D9EBF"/></svg>
